public/icons/icon/link.svg

<svg width="30" height="30" viewBox="0 0 30 30" fill="none" xmlns="http://www.w3.org/2000/svg">
<path d="M11 9H9.25C8.08836 9 7.50754 9 7.02455 9.09223C5.0411 9.47098 3.49061 10.9595 3.09607 12.8636C3 13.3272 3 13.8848 3 15C3 16.1152 3 16.6728 3.09607 17.1364C3.49061 19.0405 5.0411 20.529 7.02455 20.9078C7.50754 21 8.08836 21 9.25 21H11M19 9H20.75C21.9116 9 22.4925 9 22.9755 9.09223C24.9589 9.47098 26.5094 10.9595 26.9039 12.8636C27 13.3272 27 13.8848 27 15C27 16.1152 27 16.6728 26.9039 17.1364C26.5094 19.0405 24.9589 20.529 22.9755 20.9078C22.4925 21 21.9116 21 20.75 21H19" stroke="black" stroke-width="2" stroke-linecap="round"/>
<path d="M10.0015 15H20.0015" stroke="black" stroke-width="2" stroke-linecap="round"/>
</svg>

<svg xmlns="http://www.w3.org/2000/svg" width="30" height="30" fill="none"><path stroke="#000" stroke-linecap="round" stroke-width="2" d="M11 9H9.25c-1.162 0-1.742 0-2.225.092-1.984.379-3.534 1.867-3.929 3.772C3 13.327 3 13.884 3 15c0 1.115 0 1.673.096 2.136.395 1.905 1.945 3.393 3.929 3.772C7.508 21 8.088 21 9.25 21H11m8-12h1.75c1.162 0 1.742 0 2.226.092 1.983.379 3.533 1.867 3.928 3.772C27 13.327 27 13.884 27 15c0 1.115 0 1.673-.096 2.136-.395 1.905-1.945 3.393-3.928 3.772-.483.092-1.064.092-2.226.092H19M10.002 15h10"/></svg>
